svg/u1f9a2.svg

<svg viewBox="0 0 128 128" xmlns="http://www.w3.org/2000/svg">
  <path d="M36.54,12.89c9.1,2.82,11.26,12.01,10.7,18.96c-0.56,6.95-5.3,13.33-8.45,18.21 c-3.1,4.81-8.67,12.74-10.42,15.86c-3.33,5.96-2.63,8.82-2.63,8.82s8.63-4.97,26.37-12.01C65,57.61,85.16,57.38,96.7,59.35 c11.54,1.97,18.68,4.69,19.43,5.63s-3.75,4.88-1.6,5.73c2.16,0.84,6.95-4.27,8.17-3.66c2.12,1.06-0.19,20.37-7.6,32.1 s-22.57,18.4-50.77,18.58c-28.07,0.19-46.15,0.35-56.22-17.27c-7.13-12.48-0.66-28.25,5.16-38.01C19.4,52.16,36.36,35.4,30.63,32.6 c-3.85-1.88-9.1,2.53-9.1,2.53l-7.6-7.79c0,0-0.72-3.49,1.13-6.95C17.25,16.27,25.13,9.36,36.54,12.89z" fill="#DCEDF5"/>
  <path d="M13.03,28.94c0,0-0.84,6.34-4.93,9.01c-3.69,2.42-3.81,3.61-3.1,4.93c0.99,1.83,5.63,1.55,8.59-0.28 c2.96-1.83,7.46-6.76,7.46-6.76l-3.1-7.04L13.03,28.94z" fill="#FEA6A4"/>
  <path d="M20.4,29.41c0.99,1.6,2.77,3.8,1.64,6.15c-0.74,1.53-3.57-0.94-6.62-3.94 c-1.1-1.08-4.69-3.99-2.63-5.49c2.25-1.64,4.97,0.66,4.97,0.66s0.66-2.63,2.06-3.66c1.41-1.03,3.33-1.03,4.22-0.09 c1.33,1.4,0.66,3.47-0.56,4.5C22.48,28.39,20.4,29.41,20.4,29.41z" fill="#464B4E"/>
  <path d="M60.78,92.35c-9.79,0-21.31-3.05-24.12-5.21c-0.53-0.4-0.62-1.16-0.22-1.68 c0.4-0.52,1.16-0.62,1.68-0.22c2.58,1.98,17.77,5.92,27.82,4.36c3.47-0.54,5.81-1.67,6.97-3.34c1.46-2.11-1.73-4.44-1.87-4.53 c-0.45-0.32-0.62-0.9-0.42-1.41s0.72-0.83,1.26-0.75c0.07,0.01,6.98,0.76,8.29-2.88c0.78-2.15-0.95-3.03-1.31-3.18 c-0.54-0.23-0.83-0.82-0.7-1.39c0.14-0.57,0.66-0.96,1.24-0.92c0.08,0,8.07,0.43,8.49-3.17c0.24-2.07-1.34-2.5-1.52-2.54 c-0.65-0.15-1.05-0.8-0.9-1.44c0.15-0.65,0.79-1.05,1.44-0.9c1.33,0.31,3.76,1.79,3.36,5.16c-0.46,3.89-4.9,4.96-8,5.23 c0.54,1.01,0.74,2.33,0.15,3.96c-1.25,3.45-5.06,4.34-7.81,4.51c1.08,1.57,1.65,3.61,0.26,5.62c-1.55,2.23-4.43,3.69-8.58,4.34 C64.58,92.23,62.72,92.35,60.78,92.35z" fill="#68A4AF"/>
  <path d="M65.67,104.67c-0.26,0-0.53,0-0.8-0.01c-18.97-0.28-36.61-14.68-37.35-15.29 c-0.51-0.42-0.58-1.18-0.16-1.69c0.42-0.51,1.18-0.58,1.69-0.16c0.18,0.14,17.74,14.47,35.86,14.74 c13.8,0.24,21.32-5.23,22.31-8.19c0.5-1.5-0.2-2.35-0.23-2.39c-0.32-0.38-0.38-0.92-0.15-1.35c0.23-0.43,0.7-0.69,1.19-0.64 c0.08,0.01,8.15,0.88,10.23-3.54c1.69-3.59-0.76-5.16-0.86-5.23c-0.5-0.31-0.7-0.94-0.47-1.48c0.23-0.54,0.81-0.84,1.39-0.7 c0.06,0.01,6.26,1.45,8.43-2.42c0.55-0.97,0.67-1.81,0.39-2.56c-0.5-1.31-2.22-2.17-2.84-2.39c-0.62-0.22-0.95-0.9-0.74-1.53 c0.22-0.62,0.89-0.96,1.52-0.74c0.13,0.05,3.29,1.16,4.29,3.79c0.55,1.43,0.37,2.98-0.54,4.59c-1.87,3.34-5.45,3.96-8.07,3.93 c0.62,1.44,0.78,3.39-0.33,5.76c-2.05,4.38-7.67,5-10.7,5c0.13,0.75,0.1,1.66-0.23,2.66C88.11,98.96,79.82,104.67,65.67,104.67z" fill="#68A4AF"/>
</svg>

<svg viewBox="0 0 128 128" xmlns="http://www.w3.org/2000/svg">
  <defs/>
  <path d="M36.54,12.89 C45.64,15.71 47.8,24.9 47.24,31.85 C46.68,38.8 41.94,45.18 38.79,50.06 C35.69,54.87 30.12,62.8 28.37,65.92 C25.04,71.88 25.74,74.74 25.74,74.74 C25.74,74.74 34.37,69.77 52.11,62.73 C65,57.61 85.16,57.38 96.7,59.35 C108.24,61.32 115.38,64.04 116.13,64.98 C116.88,65.92 112.38,69.86 114.53,70.71 C116.69,71.55 121.48,66.44 122.7,67.05 C124.82,68.11 122.51,87.42 115.1,99.15 C107.69,110.88 92.53,117.55 64.33,117.73 C36.26,117.92 18.18,118.08 8.11,100.46 C0.98,87.98 7.45,72.21 13.27,62.45 C19.4,52.16 36.36,35.4 30.63,32.6 C26.78,30.72 21.53,35.13 21.53,35.13 L13.93,27.34 C13.93,27.34 13.21,23.85 15.06,20.39 C17.25,16.27 25.13,9.36 36.54,12.89 Z" fill="#DCEDF5"/>
  <path d="M13.03,28.94 C13.03,28.94 12.19,35.28 8.1,37.95 C4.41,40.37 4.29,41.56 5,42.88 C5.99,44.71 10.63,44.43 13.59,42.6 C16.55,40.77 21.05,35.84 21.05,35.84 L17.95,28.8 L13.03,28.94 Z" fill="#FEA6A4"/>
  <path d="M20.4,29.41 C21.39,31.01 23.17,33.21 22.04,35.56 C21.3,37.09 18.47,34.62 15.42,31.62 C14.32,30.54 10.73,27.63 12.79,26.13 C15.04,24.49 17.76,26.79 17.76,26.79 C17.76,26.79 18.42,24.16 19.82,23.13 C21.23,22.1 23.15,22.1 24.04,23.04 C25.37,24.44 24.7,26.51 23.48,27.54 C22.48,28.39 20.4,29.41 20.4,29.41 Z" fill="#464B4E"/>
  <path d="M60.78,92.35 C50.99,92.35 39.47,89.3 36.66,87.14 C36.13,86.74 36.04,85.98 36.44,85.46 C36.84,84.94 37.6,84.84 38.12,85.24 C40.7,87.22 55.89,91.16 65.94,89.6 C69.41,89.06 71.75,87.93 72.91,86.26 C74.37,84.15 71.18,81.82 71.04,81.73 C70.59,81.41 70.42,80.83 70.62,80.32 C70.82,79.81 71.34,79.49 71.88,79.57 C71.95,79.58 78.86,80.33 80.17,76.69 C80.95,74.54 79.22,73.66 78.86,73.51 C78.32,73.28 78.03,72.69 78.16,72.12 C78.3,71.55 78.82,71.16 79.4,71.2 C79.48,71.2 87.47,71.63 87.89,68.03 C88.13,65.96 86.55,65.53 86.37,65.49 C85.72,65.34 85.32,64.69 85.47,64.05 C85.62,63.4 86.26,63 86.91,63.15 C88.24,63.46 90.67,64.94 90.27,68.31 C89.81,72.2 85.37,73.27 82.27,73.54 C82.81,74.55 83.01,75.87 82.42,77.5 C81.17,80.95 77.36,81.84 74.61,82.01 C75.69,83.58 76.26,85.62 74.87,87.63 C73.32,89.86 70.44,91.32 66.29,91.97 C64.58,92.23 62.72,92.35 60.78,92.35 Z" fill="#68A4AF"/>
  <path d="M65.67,104.67 C65.41,104.67 65.14,104.67 64.87,104.66 C45.9,104.38 28.26,89.98 27.52,89.37 C27.01,88.95 26.94,88.19 27.36,87.68 C27.78,87.17 28.54,87.1 29.05,87.52 C29.23,87.66 46.79,101.99 64.91,102.26 C78.71,102.5 86.23,97.03 87.22,94.07 C87.72,92.57 87.02,91.72 86.99,91.68 C86.67,91.3 86.61,90.76 86.84,90.33 C87.07,89.9 87.54,89.64 88.03,89.69 C88.11,89.7 96.18,90.57 98.26,86.15 C99.95,82.56 97.5,80.99 97.4,80.92 C96.9,80.61 96.7,79.98 96.93,79.44 C97.16,78.9 97.74,78.6 98.32,78.74 C98.38,78.75 104.58,80.19 106.75,76.32 C107.3,75.35 107.42,74.51 107.14,73.76 C106.64,72.45 104.92,71.59 104.3,71.37 C103.68,71.15 103.35,70.47 103.56,69.84 C103.78,69.22 104.45,68.88 105.08,69.1 C105.21,69.15 108.37,70.26 109.37,72.89 C109.92,74.32 109.74,75.87 108.83,77.48 C106.96,80.82 103.38,81.44 100.76,81.41 C101.38,82.85 101.54,84.8 100.43,87.17 C98.38,91.55 92.76,92.17 89.73,92.17 C89.86,92.92 89.83,93.83 89.5,94.83 C88.11,98.96 79.82,104.67 65.67,104.67 Z" fill="#68A4AF"/>
</svg>
